X: 18450
T: Hurricane Bob
R: reel
M: 4/4
K: Ddorian
DA,DF EB,EG|FEFA G^FG_B|Addc BAGF|EFGF ED^CA,|
DA,DF EB,EG|FEFA G^FGB|Adde fed^c|1 dAFE DFFE:|2 dAFE D2 e2||
|:f2 fg fe df|edef ed^cB|AB^cd e^fe^c|defg a2 ea|
f2 fg fe df|edef ed^cB|AB^cd e^fe^c|1 A^ce^c d2 eg:|2 A^ce^c d2 (3e^fg||
a3 a ag ^fa|g3 g g^f eg|^f3 ^f ^fe d^f|e^fed ^cBA^f|a3 a ag ^fa|g3 g g^f eg|^fed^f ed^cB|ABBA de^fg|
aA (3AAA a2 (3AAA|g2 (3AAA g2 (3AAA|^f2 (3AAA ^f2 (3AAA|e^fed ^cBA^f|aA (3AAA a2 (3AAA|g2 (3AAA g2 (3AAA|^fed^f ed^cB|ABBA d2 D2||

